X:1
T:Sandon, 10.4.10.4.10.10
T:Charles Henry Purday, 1857
T:Sandon, 10.4.10.4.10.10
T:Public Domain
C:Charles Henry Purday, 1857
Z:Public Domain
%%score ( 1 2 ) ( 3 4 )
L:1/8
M:4/4
K:F
V:1 treble 
V:2 treble 
V:3 bass 
V:4 bass 
V:1
 [FA]4 [FA]2 [FA]2 | [FB]6 [FA]2 | [EA]2 [EG]2 F2 [EG]2 | [FA]6 [A,F]2 | [DG]4 [CE]4 | [CF]8 | %6
 [FA]4 [FA]2 [FA]2 | [FB]6 [FA]2 | [EA]2 [EG]2 F2 [EG]2 | [FA]6 [A,F]2 | [DG]4 [CE]4 | [CF]8 | %12
 [EG]4 [EG]2 [FA]2 | [EB]4 [EG]4 | [Fc]2 [EB]2 [FA]2 [EG]2 | [FA]6 [Fc]2 | [Fd]4 [Fc]4 | %17
 [EB]6 [FA]2 | [Fc]2 [GB]2 [FA]2 [EG]2 | [CF]8 |] %20
V:2
 x8 | x8 | x4 F2 x2 | x8 | x8 | x8 | x8 | x8 | x4 F2 x2 | x8 | x8 | x8 | x8 | x8 | x8 | x8 | x8 | %17
 x8 | x8 | x8 |] %20
V:3
 [F,C]4 [F,C]2 [F,C]2 | [F,D]6 [F,C]2 | [C,B,]2 [C,B,]2 [C,A,]2 [C,G,]2 | F,6 [D,F,]2 | %4
 [B,,B,]4 [C,B,]4 | [F,A,]8 | [F,C]4 [F,C]2 [F,C]2 | [F,D]6 [F,C]2 | %8
 [C,B,]2 [C,B,]2 [C,A,]2 [C,G,]2 | F,6 [D,F,]2 | [B,,B,]4 [C,G,]4 | [F,A,]8 | %12
 [C,C]4 [C,B,]2 [C,A,]2 | [C,G,]4 [C,C]4 | [A,C]2 [G,C]2 [F,C]2 [C,C]2 | [F,C]6 [A,C]2 | %16
 B,4 [A,C]4 | [G,C]6 [F,C]2 | [B,,D]2 [B,,D]2 [C,C]2 [C,B,]2 | [F,A,]8 |] %20
V:4
 x8 | x8 | x8 | F,6 x2 | x8 | x8 | x8 | x8 | x8 | F,6 x2 | x8 | x8 | x8 | x8 | x8 | x8 | B,4 x4 | %17
 x8 | x8 | x8 |] %20

